X:16390
T:Tenpenny Bit
M:6/8
L:1/8
K:A Dorian
g|eAA eAA|BAB GBd|eAA eAA|def gag|!
eAA eAA|BAB GBd|ede geB|BAG A2:|!
d|eaa aga|bab ged|eaa aga|bab g2d|!
eaa aga|bab ged|def gdB|BAG A2:|!
